X: 14
T: The Siege of Troy
M: 6/8
L: 1/8
B: "O'Neill's 14"
N: "Slow" "collected by J. O'Neill"
Z: "Transcribed by Norbert Paap, norbertp@bdu.uva.nl"
K:Gm
B/2-c/2|ddd cAF|GGG G2A/2B/2|cAB cAG|FDE D2 B/2c/2|
dBc dBc|def ~g2 d/2e/2|fdB dcAF|GGG G2||
B/2d/2|gfg gag|gfef d2 d/2e/2|fed cdc|BAG F2 G/2A/2|
BAB cBc|def ~g2 d/2e/2|fdB dcAF|GGG G2||
